korla/apps/scalable/preferences-system-login.svg

<!DOCTYPE svg  PUBLIC '-//W3C//DTD SVG 1.1//EN'  'http://www.w3.org/Graphics/SVG/1.1/DTD/svg11.dtd'>
<svg style="clip-rule:evenodd;fill-rule:evenodd;stroke-linejoin:round;stroke-miterlimit:1.41421" version="1.1" viewBox="0 0 48 48" xmlns="http://www.w3.org/2000/svg">
 <g transform="translate(-384.571 -499.798)">
  <g transform="translate(0 -.500164)">
   <rect x="386.571" y="508.198" width="44" height="33.201" style="fill-opacity:.666667"/>
   <rect x="386.571" y="507.197" width="44" height="33.201" style="fill:url(#_Linear1)"/>
  </g>
  <g transform="translate(.27228 16)">
   <path d="m427.414 515.215c0-0.775-0.629-1.404-1.404-1.404h-35.422c-0.774 0-1.403 0.629-1.403 1.404v5.489c0 0.774 0.629 1.403 1.403 1.403h35.422c0.775 0 1.404-0.629 1.404-1.403v-5.489z" style="fill-opacity:.666667"/>
   <g opacity=".314286">
    <path d="m392.226 517.962l0.33-1.065c0.85 0.31 1.415 0.55 1.695 0.72-0.09-0.87-0.135-1.475-0.135-1.815h1.035c0 0.31-0.055 0.915-0.165 1.815 0.41-0.2 0.985-0.44 1.725-0.72l0.345 1.065c-0.65 0.19-1.255 0.32-1.815 0.39 0.31 0.28 0.73 0.75 1.26 1.41l-0.885 0.615c-0.35-0.48-0.68-1.01-0.99-1.59-0.39 0.72-0.715 1.25-0.975 1.59l-0.87-0.615c0.55-0.69 0.965-1.16 1.245-1.41-0.56-0.1-1.16-0.23-1.8-0.39z" style="fill-opacity:.847059;fill-rule:nonzero;fill:white"/>
    <path d="m398.027 517.962l0.33-1.065c0.85 0.31 1.415 0.55 1.695 0.72-0.09-0.87-0.135-1.475-0.135-1.815h1.035c0 0.31-0.055 0.915-0.165 1.815 0.41-0.2 0.985-0.44 1.725-0.72l0.345 1.065c-0.65 0.19-1.255 0.32-1.815 0.39 0.31 0.28 0.73 0.75 1.26 1.41l-0.885 0.615c-0.35-0.48-0.68-1.01-0.99-1.59-0.39 0.72-0.715 1.25-0.975 1.59l-0.87-0.615c0.55-0.69 0.965-1.16 1.245-1.41-0.56-0.1-1.16-0.23-1.8-0.39z" style="fill-opacity:.847059;fill-rule:nonzero;fill:white"/>
    <path d="m403.828 517.962l0.33-1.065c0.85 0.31 1.415 0.55 1.695 0.72-0.09-0.87-0.135-1.475-0.135-1.815h1.035c0 0.31-0.055 0.915-0.165 1.815 0.41-0.2 0.985-0.44 1.725-0.72l0.345 1.065c-0.65 0.19-1.255 0.32-1.815 0.39 0.31 0.28 0.73 0.75 1.26 1.41l-0.885 0.615c-0.35-0.48-0.68-1.01-0.99-1.59-0.39 0.72-0.715 1.25-0.975 1.59l-0.87-0.615c0.55-0.69 0.965-1.16 1.245-1.41-0.56-0.1-1.16-0.23-1.8-0.39z" style="fill-opacity:.847059;fill-rule:nonzero;fill:white"/>
    <path d="m409.629 517.962l0.33-1.065c0.85 0.31 1.415 0.55 1.695 0.72-0.09-0.87-0.135-1.475-0.135-1.815h1.035c0 0.31-0.055 0.915-0.165 1.815 0.41-0.2 0.985-0.44 1.725-0.72l0.345 1.065c-0.65 0.19-1.255 0.32-1.815 0.39 0.31 0.28 0.73 0.75 1.26 1.41l-0.885 0.615c-0.35-0.48-0.68-1.01-0.99-1.59-0.39 0.72-0.715 1.25-0.975 1.59l-0.87-0.615c0.55-0.69 0.965-1.16 1.245-1.41-0.56-0.1-1.16-0.23-1.8-0.39z" style="fill-opacity:.847059;fill-rule:nonzero;fill:white"/>
    <path d="m415.429 517.962l0.33-1.065c0.85 0.31 1.415 0.55 1.695 0.72-0.09-0.87-0.135-1.475-0.135-1.815h1.035c0 0.31-0.055 0.915-0.165 1.815 0.41-0.2 0.985-0.44 1.725-0.72l0.345 1.065c-0.65 0.19-1.255 0.32-1.815 0.39 0.31 0.28 0.73 0.75 1.26 1.41l-0.885 0.615c-0.35-0.48-0.68-1.01-0.99-1.59-0.39 0.72-0.715 1.25-0.975 1.59l-0.87-0.615c0.55-0.69 0.965-1.16 1.245-1.41-0.56-0.1-1.16-0.23-1.8-0.39z" style="fill-opacity:.847059;fill-rule:nonzero;fill:white"/>
   </g>
  </g>
  <path d="m412.71 519.77h-6.938v-1.728c0-1.543 1.256-2.799 2.799-2.799 1.261 0 2.371 0.848 2.702 2.062 0.108 0.398 0.518 0.633 0.916 0.525s0.633-0.519 0.525-0.917c-0.507-1.862-2.21-3.163-4.143-3.163-2.366 0-4.292 1.925-4.292 4.292v1.744c-0.338 0.071-0.593 0.372-0.593 0.731v6.534c0 0.412 0.335 0.747 0.747 0.747h8.277c0.412 0 0.747-0.335 0.747-0.747v-6.534c0-0.412-0.335-0.747-0.747-0.747z" style="fill-opacity:.85098;fill-rule:nonzero;fill:white"/>
 </g>
 <defs>
  <linearGradient id="_Linear1" x2="1" gradientTransform="matrix(2.09279e-15,-34.1778,34.1778,2.09279e-15,409.571,541.375)" gradientUnits="userSpaceOnUse">
   <stop style="stop-color:rgb(108,109,110)" offset="0"/>
   <stop style="stop-color:rgb(155,156,158)" offset="1"/>
  </linearGradient>
 </defs>
</svg>

<?xml version="1.0" encoding="UTF-8" standalone="no"?>
<!DOCTYPE svg PUBLIC "-//W3C//DTD SVG 1.1//EN" "http://www.w3.org/Graphics/SVG/1.1/DTD/svg11.dtd">
<svg width="100%" height="100%" viewBox="0 0 48 48" version="1.1" xmlns="http://www.w3.org/2000/svg" xmlns:xlink="http://www.w3.org/1999/xlink" xml:space="preserve" xmlns:serif="http://www.serif.com/" style="fill-rule:evenodd;clip-rule:evenodd;stroke-linejoin:round;stroke-miterlimit:1.41421;">
    <g id="g31" transform="matrix(1,0,0,1,-384.571,-499.798)">
        <g id="g11" transform="matrix(1,0,0,1,0,-0.500164)">
            <rect id="rect7" x="386.571" y="508.198" width="44" height="33.201" style="fill-opacity:0.666667;"/>
            <rect id="rect9" x="386.571" y="507.197" width="44" height="33.201" style="fill:url(#_Linear1);"/>
        </g>
        <g id="g27" transform="matrix(1,0,0,1,0.27228,16)">
            <path id="rect13" d="M427.414,515.215C427.414,514.44 426.785,513.811 426.01,513.811L390.588,513.811C389.814,513.811 389.185,514.44 389.185,515.215L389.185,520.704C389.185,521.478 389.814,522.107 390.588,522.107L426.01,522.107C426.785,522.107 427.414,521.478 427.414,520.704L427.414,515.215Z" style="fill-opacity:0.666667;"/>
            <g id="g25" opacity="0.314286">
                <path id="path15" d="M392.226,517.962L392.556,516.897C393.406,517.207 393.971,517.447 394.251,517.617C394.161,516.747 394.116,516.142 394.116,515.802L395.151,515.802C395.151,516.112 395.096,516.717 394.986,517.617C395.396,517.417 395.971,517.177 396.711,516.897L397.056,517.962C396.406,518.152 395.801,518.282 395.241,518.352C395.551,518.632 395.971,519.102 396.501,519.762L395.616,520.377C395.266,519.897 394.936,519.367 394.626,518.787C394.236,519.507 393.911,520.037 393.651,520.377L392.781,519.762C393.331,519.072 393.746,518.602 394.026,518.352C393.466,518.252 392.866,518.122 392.226,517.962Z" style="fill:white;fill-opacity:0.847059;fill-rule:nonzero;"/>
                <path id="path17" d="M398.027,517.962L398.357,516.897C399.207,517.207 399.772,517.447 400.052,517.617C399.962,516.747 399.917,516.142 399.917,515.802L400.952,515.802C400.952,516.112 400.897,516.717 400.787,517.617C401.197,517.417 401.772,517.177 402.512,516.897L402.857,517.962C402.207,518.152 401.602,518.282 401.042,518.352C401.352,518.632 401.772,519.102 402.302,519.762L401.417,520.377C401.067,519.897 400.737,519.367 400.427,518.787C400.037,519.507 399.712,520.037 399.452,520.377L398.582,519.762C399.132,519.072 399.547,518.602 399.827,518.352C399.267,518.252 398.667,518.122 398.027,517.962Z" style="fill:white;fill-opacity:0.847059;fill-rule:nonzero;"/>
                <path id="path19" d="M403.828,517.962L404.158,516.897C405.008,517.207 405.573,517.447 405.853,517.617C405.763,516.747 405.718,516.142 405.718,515.802L406.753,515.802C406.753,516.112 406.698,516.717 406.588,517.617C406.998,517.417 407.573,517.177 408.313,516.897L408.658,517.962C408.008,518.152 407.403,518.282 406.843,518.352C407.153,518.632 407.573,519.102 408.103,519.762L407.218,520.377C406.868,519.897 406.538,519.367 406.228,518.787C405.838,519.507 405.513,520.037 405.253,520.377L404.383,519.762C404.933,519.072 405.348,518.602 405.628,518.352C405.068,518.252 404.468,518.122 403.828,517.962Z" style="fill:white;fill-opacity:0.847059;fill-rule:nonzero;"/>
                <path id="path21" d="M409.629,517.962L409.959,516.897C410.809,517.207 411.374,517.447 411.654,517.617C411.564,516.747 411.519,516.142 411.519,515.802L412.554,515.802C412.554,516.112 412.499,516.717 412.389,517.617C412.799,517.417 413.374,517.177 414.114,516.897L414.459,517.962C413.809,518.152 413.204,518.282 412.644,518.352C412.954,518.632 413.374,519.102 413.904,519.762L413.019,520.377C412.669,519.897 412.339,519.367 412.029,518.787C411.639,519.507 411.314,520.037 411.054,520.377L410.184,519.762C410.734,519.072 411.149,518.602 411.429,518.352C410.869,518.252 410.269,518.122 409.629,517.962Z" style="fill:white;fill-opacity:0.847059;fill-rule:nonzero;"/>
                <path id="path23" d="M415.429,517.962L415.759,516.897C416.609,517.207 417.174,517.447 417.454,517.617C417.364,516.747 417.319,516.142 417.319,515.802L418.354,515.802C418.354,516.112 418.299,516.717 418.189,517.617C418.599,517.417 419.174,517.177 419.914,516.897L420.259,517.962C419.609,518.152 419.004,518.282 418.444,518.352C418.754,518.632 419.174,519.102 419.704,519.762L418.819,520.377C418.469,519.897 418.139,519.367 417.829,518.787C417.439,519.507 417.114,520.037 416.854,520.377L415.984,519.762C416.534,519.072 416.949,518.602 417.229,518.352C416.669,518.252 416.069,518.122 415.429,517.962Z" style="fill:white;fill-opacity:0.847059;fill-rule:nonzero;"/>
            </g>
        </g>
        <path id="path29" d="M412.71,519.77L405.772,519.77L405.772,518.042C405.772,516.499 407.028,515.243 408.571,515.243C409.832,515.243 410.942,516.091 411.273,517.305C411.381,517.703 411.791,517.938 412.189,517.83C412.587,517.722 412.822,517.311 412.714,516.913C412.207,515.051 410.504,513.75 408.571,513.75C406.205,513.75 404.279,515.675 404.279,518.042L404.279,519.786C403.941,519.857 403.686,520.158 403.686,520.517L403.686,527.051C403.686,527.463 404.021,527.798 404.433,527.798L412.71,527.798C413.122,527.798 413.457,527.463 413.457,527.051L413.457,520.517C413.457,520.105 413.122,519.77 412.71,519.77Z" style="fill:white;fill-opacity:0.85098;fill-rule:nonzero;"/>
    </g>
    <defs>
        <linearGradient id="_Linear1" x1="0" y1="0" x2="1" y2="0" gradientUnits="userSpaceOnUse" gradientTransform="matrix(2.09279e-15,-34.1778,34.1778,2.09279e-15,409.571,541.375)"><stop offset="0" style="stop-color:rgb(108,109,110);stop-opacity:1"/><stop offset="1" style="stop-color:rgb(155,156,158);stop-opacity:1"/></linearGradient>
    </defs>
</svg>
